X:2915
T:Ole Lukk\oye
C:O. Jacobsen
O:Denmark
R:Lullaby
Z:Transcribed by Frank Nordberg - http://www.musicaviva.com
F:http://abc.musicaviva.com/tunes/jacobsen-o/jacobsen-ole-lukkoeye.abc
M:3/4
L:1/8
Q:1/4=104
K:Eb
z B, EG|"Eb"c2 BE DE|"Fm"G2 FC FA|
w:Den lil-le O-le med pa-ra-ply-en, han kjen-ner
"Bb7"d2 cF =EF|"Eb"^F2 GB cd|"Cm"f2 eG AB|
w:al-le sm\aa folk i by-en. Hver li-ta jen-te hver li-ten
"Ab"c3c "Adim"dc|"Eb/Bb"c2 BB, "Bb7"CD|"Eb"E2|]
w:gutt som m\aa til sengs n\aa ved kvel-dens slutt.
W:
W:Den lille Ole med paraplyen,
W:han kjenner alle sm\aa folk i byen.
W:Hver lita jente hver liten gutt
W:som m\aa til sengs n\aa ved kveldens slutt.
W:
W:
W:  From Musica Viva - http://www.musicaviva.com
W:  the Internet center for free sheet music downloads.


